svg/golf-11.svg

<?xml version="1.0" encoding="utf-8"?>
<!-- Generator: Adobe Illustrator 19.2.1, SVG Export Plug-In . SVG Version: 6.00 Build 0)  -->
<!DOCTYPE svg PUBLIC "-//W3C//DTD SVG 1.1//EN" "http://www.w3.org/Graphics/SVG/1.1/DTD/svg11.dtd">
<svg version="1.1"
	 id="svg4764" inkscape:version="0.91+devel+osxmenu r12911" sodipodi:docname="golf-11.svg" xmlns:cc="http://creativecommons.org/ns#" xmlns:dc="http://purl.org/dc/elements/1.1/" xmlns:inkscape="http://www.inkscape.org/namespaces/inkscape" xmlns:rdf="http://www.w3.org/1999/02/22-rdf-syntax-ns#" xmlns:sodipodi="http://sodipodi.sourceforge.net/DTD/sodipodi-0.dtd" xmlns:svg="http://www.w3.org/2000/svg"
	 xmlns="http://www.w3.org/2000/svg" xmlns:xlink="http://www.w3.org/1999/xlink" x="0px" y="0px" width="11px" height="11px"
	 viewBox="0 0 11 11" style="enable-background:new 0 0 11 11;" xml:space="preserve">
<path id="path11685" inkscape:connector-curvature="0" sodipodi:nodetypes="ssccssccscccccsccsccssssssssss" d="M4.0492,0.638
	C3.5323,1.1814,4.2729,1.813,4.7284,1.3132l0.4953-0.5434l2.3326,1.3937L3.3063,4.5C3.0126,4.6615,2.9648,4.9407,3.0724,5.2212
	l0.8886,2.3165l-0.9355,2.8046C2.8974,10.7268,3.1975,10.991,3.5001,11c0.1954,0.0058,0.3919-0.093,0.4747-0.3413l0.9199-2.7636
	l0.8535-0.2832L6,8.1172V10.5c0,0,0,0.5,0.5,0.5S7,10.5,7,10.5V8.1172C7,8,6.9893,7.8618,6.9358,7.7548L5.6546,4.415l2.5528-1.4035
	c0.1868-0.0802,0.2901-0.2535,0.2901-0.5115c0-0.2259-0.2177-0.413-0.4564-0.5556L4.9047,0.0706
	c-0.1595-0.0953-0.2749-0.043-0.3226,0.0071L4.0492,0.638z M3,2.0002c-0.5523,0-1,0.4477-1,1s0.4477,1,1,1s1-0.4477,1-1
	S3.5523,2.0002,3,2.0002z"/>
</svg>

<svg xmlns="http://www.w3.org/2000/svg" width="11" height="11">
    <path d="M4.05.638c-.518.543.223 1.175.678.675L5.224.77l2.332 1.393L3.306 4.5c-.293.162-.341.44-.234.721l.889 2.317-.935 2.804c-.129.385.171.649.474.658a.468.468 0 0 0 .475-.341l.92-2.764.853-.283.252.505V10.5s0 .5.5.5.5-.5.5-.5V8.117a.84.84 0 0 0-.064-.362l-1.281-3.34 2.552-1.403c.187-.08.29-.254.29-.512 0-.226-.217-.413-.456-.556L4.905.071c-.16-.096-.275-.043-.323.007l-.533.56zM3 2a1 1 0 1 0 0 2 1 1 0 0 0 0-2z"/>
</svg>
